X:6343
T:Sunshine hornpipe
C:trad. Ierland
O:England
M:12/8
L:1/8
Q:1/4=216
K:Eb
V:1
"Eb"(G2 G)|"Bb7"(B eB GB GE GE B,2 G,)|"Eb"(G,2 B,E2 GB2 GE2 G)|"Eb"(G cG GB G)(F GF EG E)|
"Bb7"(D2 F)(C2 F)B,3 (G2 G)|"Bb7"(B2 eG2 BE2 GB,2 G,)|"Eb"(G,2 B,E2 GB2 GE2 G)|"Eb"(G cG GB G)(F GF DF D|
"Eb"E2) (eB2 GE3) ||"Eb"(G2 G)|"Bb7"(B eB GB GE GE B,2 G,)|"Eb"(G,2 B,E2 GB2 GE2 G)|
"Eb"(G cG GB G)(F GF EG E)|"Bb7"(D2 F)(C2 F)B,3 (G2 G)|"Bb7"(B2 eG2 BE2 GB,2 G,)|"Eb"(G,2 B,E2 GB2 GE2 G)|
"Eb"(G cG GB G)(F GF DF D|"Eb"E2) (eB2 GE3) ||"Bb7"(F2 G)|"Eb"(G2 FD2 FB,2 DF2 G|
"Eb"G2 FD2 FG3) (G2 G)|"Bb7"(B2 GE GE B,2 EG2 G|"Bb7"B2 GE GB e3) (d2 e)|"Ab"(c2 GF2 G)(c BG GF E)|
"Bb7"(D EF ED C)B,3 (G2 G)|"Bb7"(B2 ec2 G)(G2 E)(F2 D)|"Eb"E2 (eB2 GE3) ||"Bb7"(F2 G)|
"Eb"(G2 FD2 FB,2 DF2 G|"Eb"G2 FD2 FG3) (G2 G)|"Bb7"(B2 GE GE B,2 EG2 G|"Bb7"B2 GE GB e3) (d2 e)|
"Ab"(c2 GF2 G)(c BG GF E)|"Bb7"(D EF ED C)B,3 (G2 G)|"Bb7"(B2 ec2 G)(G2 E)(F2 D)|"Eb"E2 (eB2 GE3) |]


